X: 2419
T: HOLE IN THE WALL
R: Clog Dance.
%R: _
B: James Kerr "Merry Melodies" v.2 p.47 #419
Z: 2016 John Chambers <jc:trillian.mit.edu>
N: The final ending has no repeat symbol; the last bar may be intended as only the final ending.
M: C
L: 1/8
K: Am
|:\
vA,2B,2 C<A, zB, | (.C2.D2) E4 |\
A2c2 (3(FGF) E2 | A2c2 (3(FGF) E2 |\
A,2B,2 C<A, zB, | (.C2.D2) E4 |\
A>Bc>d e2a2 | ^g>ab>g a2z2 :|
(3(cdc) G2 (3(cdc) G2 | (3(cdc) G2 c>cB>c |\
(3(ded) G2 (3(ded) G2 | (3(ded) G2 d>dc>d |\
e2e2 (3(FGF) E2 | e2e2 (3(FGF) E2 |
(3(FGF) E2 (3(FGF) E2 | E>FE>F E>DC>B, |:\
vA,<A, zuB, C>A,B,>C | D<D zE F>DE>F |\
E>^GBc d>BG>B |[1 A>cB>^G A>GC>B, ||[2 A<AE>C A,2 |]
